X: 11024
T: DON'S REEL
C: Bob McQuillen 25 Jan'00
B: Bob's Note Book 11 #24
R: reel
Z: 2020 John Chambers <jc:trillian.mit.edu>
M: C
L: 1/8
K: D
DE \
| FEDF AGFA | fdef dBAF | GABd AFDF | Adef e2DE |
| FEDF AGFA | fdef dBAF | GABd AFDB | AFEF D2  :|
|: de \
| fdfg fdAd | fdeg fdBd | Adfd edBd | AdAF E2de |
| fdfg fdAd | fdeg fdBd | edfd BAFD | EDEF D2  :|
%%begintext align
%% Don Primrose lives over in
%% Sullivan. By day, he's a contractor, but at night, ahah!
%% he's a contra dancer and a real fine caller, and one of the
%% several Spark plugs of the (famous!!) Monday Night Dance
%% in Nelson. He's also a great cookie cooker, and he's also
%% Shannon's dad (which says a lot right there!) :-)!
%%endtext

%%sep 1 1 500

%%sep 1 1 500

